apps/mobile/assets/icons/phosphor/images.svg

<svg
  height="32"
  viewBox="0 0 256 256"
  width="32"
  xmlns="http://www.w3.org/2000/svg"
>
  <path
    d="m216 40h-144a16 16 0 0 0 -16 16v16h-16a16 16 0 0 0 -16 16v112a16 16 0 0 0 16 16h144a16 16 0 0 0 16-16v-16h16a16 16 0 0 0 16-16v-112a16 16 0 0 0 -16-16zm-144 16h144v62.75l-10.07-10.06a16 16 0 0 0 -22.63 0l-20 20-44-44a16 16 0 0 0 -22.62 0l-24.68 24.68zm112 144h-144v-112h16v80a16 16 0 0 0 16 16h112zm32-32h-144v-36l36-36 49.66 49.66a8 8 0 0 0 11.31 0l25.66-25.66 21.37 21.38zm-56-84a12 12 0 1 1 12 12 12 12 0 0 1 -12-12z"
  />
</svg>

<svg xmlns="http://www.w3.org/2000/svg" width="32" height="32" fill="#000000" viewBox="0 0 256 256"><path d="M216,40H72A16,16,0,0,0,56,56V72H40A16,16,0,0,0,24,88V200a16,16,0,0,0,16,16H184a16,16,0,0,0,16-16V184h16a16,16,0,0,0,16-16V56A16,16,0,0,0,216,40ZM72,56H216v62.75l-10.07-10.06a16,16,0,0,0-22.63,0l-20,20-44-44a16,16,0,0,0-22.62,0L72,109.37ZM184,200H40V88H56v80a16,16,0,0,0,16,16H184Zm32-32H72V132l36-36,49.66,49.66a8,8,0,0,0,11.31,0L194.63,120,216,141.38V168ZM160,84a12,12,0,1,1,12,12A12,12,0,0,1,160,84Z"></path></svg>
